icons/solid/presentation-report.svg

<svg width="24" height="24" viewBox="0 0 24 24" fill="none" xmlns="http://www.w3.org/2000/svg">
<path fill-rule="evenodd" clip-rule="evenodd" d="M3 6C3 4.34315 4.34315 3 6 3H18C19.6569 3 21 4.34315 21 6V14C21 15.6569 19.6569 17 18 17H14.4142L16.7071 19.2929C17.0976 19.6834 17.0976 20.3166 16.7071 20.7071C16.3166 21.0976 15.6834 21.0976 15.2929 20.7071L12 17.4142L8.70711 20.7071C8.31658 21.0976 7.68342 21.0976 7.29289 20.7071C6.90237 20.3166 6.90237 19.6834 7.29289 19.2929L9.58579 17H6C4.34315 17 3 15.6569 3 14V6ZM17 8C17 7.44772 16.5523 7 16 7C15.4477 7 15 7.44772 15 8V12C15 12.5523 15.4477 13 16 13C16.5523 13 17 12.5523 17 12V8ZM13 10C13 9.44772 12.5523 9 12 9C11.4477 9 11 9.44772 11 10V12C11 12.5523 11.4477 13 12 13C12.5523 13 13 12.5523 13 12V10ZM9 11C9 10.4477 8.55228 10 8 10C7.44772 10 7 10.4477 7 11V12C7 12.5523 7.44772 13 8 13C8.55228 13 9 12.5523 9 12V11Z" fill="currentColor"/>
</svg>

<svg width="24" height="24" fill="none" xmlns="http://www.w3.org/2000/svg"><path fill-rule="evenodd" clip-rule="evenodd" d="M3 6a3 3 0 013-3h12a3 3 0 013 3v8a3 3 0 01-3 3h-3.586l2.293 2.293a1 1 0 01-1.414 1.414L12 17.414l-3.293 3.293a1 1 0 01-1.414-1.414L9.586 17H6a3 3 0 01-3-3V6zm14 2a1 1 0 10-2 0v4a1 1 0 102 0V8zm-4 2a1 1 0 10-2 0v2a1 1 0 102 0v-2zm-4 1a1 1 0 10-2 0v1a1 1 0 102 0v-1z" fill="currentColor"/></svg>
